P1
# battery_10.pbm - 1 is lit
12 32
0 0 0 0 1 1 1 1 0 0 0 0
0 0 0 0 1 1 1 1 0 0 0 0
0 1 1 1 1 1 1 1 1 1 1 0
1 1 0 0 0 0 0 0 0 0 1 1
1 0 0 1 1 1 1 1 1 0 0 1
1 0 1 1 1 1 1 1 1 1 0 1
1 0 1 1 1 1 1 1 1 1 0 1
1 0 1 1 1 1 1 1 1 1 0 1
1 0 1 1 1 1 1 1 1 1 0 1
1 0 1 1 1 1 1 1 1 1 0 1
1 0 1 1 1 1 1 1 1 1 0 1
1 0 1 1 1 1 1 1 1 1 0 1
1 0 1 1 1 1 1 1 1 1 0 1
1 0 1 1 1 1 1 1 1 1 0 1
1 0 1 1 1 1 1 1 1 1 0 1
1 0 1 1 1 1 1 1 1 1 0 1
1 0 1 1 1 1 1 1 1 1 0 1
1 0 1 1 1 1 1 1 1 1 0 1
1 0 1 1 1 1 1 1 1 1 0 1
1 0 1 1 1 1 1 1 1 1 0 1
1 0 1 1 1 1 1 1 1 1 0 1
1 0 1 1 1 1 1 1 1 1 0 1
1 0 1 1 1 1 1 1 1 1 0 1
1 0 1 1 1 1 1 1 1 1 0 1
1 0 1 1 1 1 1 1 1 1 0 1
1 0 1 1 1 1 1 1 1 1 0 1
1 0 1 1 1 1 1 1 1 1 0 1
1 0 1 1 1 1 1 1 1 1 0 1
1 0 1 1 1 1 1 1 1 1 0 1
1 0 0 0 0 0 0 0 0 0 0 1
1 1 1 1 1 1 1 1 1 1 1 1
0 1 1 1 1 1 1 1 1 1 1 0
